X:1
T:James Gibb editions
T:Say, O say! saith the music - Stanford
T:#
%%score 1 { ( 2 3 ) | ( 4 5 ) }
L:1/8
Q:1/4=64
M:2/4
K:C
V:1 treble nm="Voice"
V:2 treble nm="Piano"
V:3 treble 
V:4 bass 
V:5 bass 
V:1
 z4 | z4 | z4 | z4 | z4 | z4 ||[K:F][M:2/4][K:treble] z4 | z2 z!mf! c | f3 c | c>A cA | GB Ac | %11
w: |||||||I|love my|la- dy's eyes A-|bove the beau- ties|
 (B d2) E | F>A G>B | A>c Bd | (cf- f/c/) (B/A/) | (A2 G2) | z4 | z B Ac |!<(! B3 d | c3!<)! c | %20
w: rare * She|most is wont to|prize, A- bove her|sun\- * * * ny *|hair, *||And all that|face to|face her|
 (fd c)B | A3 G | F2 z2 | z4 | z4 | z4 | z4 | z4 | z4 | z2 z!mf! c | f3 c | c>A cA | GB Ac | %33
w: glass * * re-|peats of|grace.|||||||For|those are|still the same To|her and all that|
 (B d2) z | z3/2!f! F/ c2- | c z/ c/ _e2- | e=e f2- | f_d cB | _AG _e2 | z4 | z _d c_e | _d3 f | %42
w: see: *|but oh!|* her eyes|* will flame|* when they do|look on me:||And so a-|bove the|
 _e3 =e | (f4- | fd) (cB) | A3 G | F2 z2 | z4 | z c f2- | f4 |"^poco rall."[Q:1/4=58] A2 B2 | %51
w: rest I|love|* * her *|eyes the|best.||Now say,||Say, O|
 cB/A/ GF |!<(! z G!>(! _e>!<)!c!>)! | !fermata!A4 |"^a tempo"[Q:1/4=64] z ^F GB | A_e d2 | %56
w: say! saith the mu- sic,|who likes my|song?|I knew you|by your eyes,|
 z ^G Ac | =Bf e2- | ef cB | A3 G | F2 z2 | z4 | z B!pp! _e2- | e4 | %64
w: That rest on|noth- ing long,|* And have for-|got sur-|prise;||And stray,||
"^poco rall."[Q:1/4=60] G2 _A2 | B_A/G/ F_E | z _E _e>c | (B2 A2) |[Q:1/4=60][Q:1/4=60] z2!p! B2 | %69
w: stray, oh|stray! saith the mu- sic!|As mine will|stray, *|the|
 _d2 _e2 | f4- | f2 B2 | (A2 c2- | c4) |[M:2/4] z4 | z4 | z4 | z4 | z4 | z4 | z4 |] %81
w: while my|love's|* a-|way. *|||||||||
V:2
[K:F]"^C. V. Stanford\n(1852-1924)""^Andante con moto""^Say, O say! saith the music""^Robert Bridges\n(1844-1930)"!mf! A2 B2 | %1
 x4 | (G2 A2 | BA/G/ FE) | F>(F G>)(G | A>)A B>B ||!>(! (cf- f/c/B/A/)!>)! | ([FA]2 [EG]2) | %8
!pp! (A2 B2 | cB/A/ GF) | (G2 A2 | BA/G/ FE) | z/ (C/D/C/) z/ (C/D/C/) | z/ C/D/C/ z/ C/D/C/ | %14
 z/ (C/=B,/C/ D/C/F/A/) | (c/F/E/F/ G/E/D/C/) | z (EFA | GBAc) | (B/D/E/C/ B/E/F/D/ | %19
 B/G/E/D/ C/D/C/G,/ | C)(B,CD | C F2 E) |!mf! (A2 B2 | cB/A/ GF) | (G2 A2) | (BA/G/ FE) | %26
 F>(F G>)(G | A>)(A B>)B | (cf- f/c/B/A/) | ([FA]2 [EG]2) |!pp! (A2 B2 | cB/A/ GF) | (G2 A2 | %33
 BA/G/ FE) | F>(.F G>)(G | _A>)A B>B | .c.[_Ac]!f! [FAc]2- | ((cB z2 | %38
!>(! z/ B/_E/F/ G/E/B,/G,/!>)! | z GAc | B_dc_e | _d/F/G/_E/ d/G/A/F/) | _d/A/B/_E/) (d/A/B/=E/) | %43
 (f[FA_d][_EAc][_DB]) | AdcF | [CFA]2 [B,E]2 |!p! (A2 B2 | cB/A/ GF) | (A2 B2-) | (cB/A/ GF) | %50
 z/ C/D/C/ z/ C/D/C/ | z/ (C/D/C/ D/C/D/C/) | [C_EG]4 | !fermata![C_EA]4 | ([_E^F]2 [DG]2 | %55
 [CA]3 [B,B]) | ([F^G]2 [EA]2 | [D=B]3 [Cc]) | ([EG][FA]) z [DF] | [CFA]2 [B,E]2 | (A2 B2 | %61
 cB/A/ GF) |!pp! (G2 _A2 | B_A/G/ F_E) | (G2 _A2 | B_A/G/ F_E) | [C_EB]4 | B2 A2 | z2 ([_DB]2 | %69
 [B,F]2 [A,_E]2 | [B,_D]4 | B,4) | z4 | z4 | ([F,_A,]2 [G,B,]2 | %75
 [_A,C][G,B,]/[F,A,]/ [E,G,][G,B,]) | ([F,_A,]2 [G,B,]2 |!>(! [_A,C]2 [E,G,]2)!>)! |!pp! [F,A,]4 | %79
 [F,A,]4 | !fermata![F,A,]4 |] %81
V:3
[K:F] z/ (C/G/F/) z/ (C/G/F/) | cB/A/ GF | z/ (G,/D/C/) z/ (A,/D/C/) | x4 | z/ C/D/C/ z/ C/D/C/ | %5
 z/ C/D/C/ z/ C/D/C/ || z4 | z/ C/D/C/ z/ C/D/C/ | z/ C/G/F/ z/ C/G/F/ | x4 | %10
 z/ G,/D/C/ z/ A,/D/C/ | x4 | x4 | x4 | x4 | x4 | z/ C/E/C/ D/C/F/C/ | E/C/G/C/ F/C/A/C/ | x4 | %19
 x4 | x4 | C2 B,2 | z/ C/G/F/ z/ C/G/F/ | x4 | z/ G,/D/C/ z/ A,/D/C/ | x4 | z/ C/D/C/ z/ C/D/C/ | %27
 z/ C/D/C/ z/ C/D/C/ | x4 | z/ C/D/C/ z/ C/D/C/ | z/ C/G/F/ z/ C/G/F/ | x4 | %32
 z/ G,/D/C/ z/ A,/D/C/ | x4 | z/ C/D/C/ z/ C/_D/C/ | z/ C/_D/C/ z/ _E/F/E/ | x4 | [FA]2 x2 | x4 | %39
 z/ _E/G/E/ F/E/_A/E/ | G/_E/B/E/ _A/E/c/E/ | x4 | x4 | x4 | (F3 D) | x4 | z/ C/G/F/ z/ C/G/F/ | %47
 x4 | z/ C/G/F/ z/ C/G/F/ | x4 | x4 | x4 | x4 | x4 | x4 | _E2 D2 | x4 | F2 E2 | C2 z x | x4 | %60
 z/ C/G/F/ z/ C/G/F/ | x4 | z/ B,/F/_E/ z/ B,/F/E/ | x4 | z/ B,/F/_E/ z/ B,/F/E/ | x4 | x4 | %67
 [C_E]4 | x4 | x4 | x4 | x4 | x4 | x4 | x4 | x4 | x4 | x4 | x4 | x4 | x4 |] %81
V:4
[K:F] x4 | z/ (C/D/C/ D/C/F/C/) | E,2 F,2 | z/ (B,/C/B,/ C/B,/C/B,/) | D,>(D, E,>)E, | %5
 F,>(F, G,>)G, || z/ C/D/C/ D/C/D/C/ | C,4 | F,2 G,2 | z/ C/D/C/ D/C/D/C/ | E,2 F,2 | %11
 z/ B,/C/B,/ C/B,/C/B,/ | D, z/ (D,/ E,) z/ (E,/ | F,) z/ (F,/ G,) z/ G,/ | A,3 F, | C,4 | %16
!p! B,,C,B,,C, | B,,C,B,,C, | G,,C,F,,C, | E,, C,2 x | F,3 F, | x4 | F,2 G,2 | z/ C/D/C/ D/C/D/C/ | %24
 E,2 F,2 | z/ B,/C/B,/ C/B,/C/B,/ | D,>D, E,>E, | F,>(F, G,>)G, | z/ (C/D/C/ D/C/D/C/) | C,4 | %30
 F,2 G,2 | z/ C/D/C/ D/C/D/C/ | E,2 F,2 | z/ B,/C/B,/ C/B,/C/B,/ | D,>D, E,>E, | F,>(F, .G,>)(G, | %36
 (._A,).[A,C]) [_D,-A,C-]2 | CB, z2 | _E,4- | (D,E,_D,_E, | _D,_E,D,E,) |"^cresc." (B,,_E, _A,,E, | %42
 G,,_E,_G,,_G,) | (F,,2 B,,2) | CB, A,- z | C,2 C,2 | F,2 G,2 | z/ (C/D/C/ D/C/D/C/) | %48
"^dim." F,2 G,2 | z/ (C/D/C/ D/C/D/C/) |"^poco rall." F,2 G,2 | A,4 | C,4 | !fermata!^F,4 | %54
"^a tempo" A,2 B,2 | ^F,,3 G,, | =B,2 C2 | ^G,,3 A,, | (B,,A,,) z B,, | C,2 C,2 | F,2 G,2 | %61
 z/ C/D/C/ D/C/D/C/ | _E,2 F,2 | z/ B,/C/B,/ C/B,/C/B,/ | _E,2 F,2 | z/ B,/C/B,/ C/B,/C/B,/ | %66
 (_G,4 | F,4) | z2 F,2 | _D,2 C,2 | B,,4 | [D,E,]4- |!p! ([F,A,]2 [G,B,]2 | %73
 [A,C][G,B,]/[F,A,]/ [E,G,][G,B,]) | F,,/C,/_D,/C,/ D,/C,/D,/C,/ | C,,/C,/_D,/C,/ D,/C,/D,/C,/ | %76
 F,,/C,/_D,/C,/ _E,,2 | _A,,,2 C,,/C,/D,/C,/ | F,,4 | F,,4 | !fermata![F,,C,F,]4 |] %81
V:5
[K:F] (F,2 G,2 | A,4) | x4 | G,4 | x4 | x4 || A,3 F, | x4 | x4 | A,4 | x4 | G,4 | x4 | x4 | x4 | %15
 x4 | x4 | x4 | x4 | x3 B,, | A,,G,,A,,B,, | C,4 | x4 | A,4 | x4 | G,4 | x4 | x4 | A,3 F, | x4 | %30
 x4 | A,4 | x4 | G,4 | x4 | x4 | x4 | [D,A,]2 z2 | z4 | x4 | x4 | x4 | x4 | x4 | C,4- | x4 | x4 | %47
 A,4 | x4 | A,4 | x4 | x4 | x4 | x4 | x4 | x4 | x4 | x4 | x4 | x4 | x4 | A,4 | x4 | G,4 | x4 | %65
 G,4 | x4 | x4 | x4 | x4 | x4 | x4 | F,,/C,/D,/C,/ D,/C,/D,/C,/ | C,,/C,/D,/C,/ D,/C,/D,/C,/ | x4 | %75
 x4 | z2 z/ _E,/F,/E,/ | z/ _E,/F,/E,/ z2 | z/ (C,/D,/C,/ D,/C,/D,/C,/) | %79
 z/ (C,/D,/C,/ D,/C,/D,/C,/-) | x4 |] %81

